X:18
T:Mary Willie's
Z: id:dc-slide-18
M:6/8
L:1/8
K:C Major
G|c2d e2d|cBc A3|f2G BAG|d2G BAG|!
c2d e2d|cBc A3|f2G BAG|c3 c2:|!
G|c2d e2g|age g2e|d2G BAG|d2G BAG|!
c2d e2g|age g2e|d2G BAG|c3 c2:|!

